icons/desktop/16/fence-16.svg

<svg width="16" height="16" viewBox="0 0 16 16" fill="none" xmlns="http://www.w3.org/2000/svg">
<path fill-rule="evenodd" clip-rule="evenodd" d="M11.8584 2.06738C12.0891 1.96201 12.3611 1.98045 12.5781 2.1211L14.6582 3.46875C14.8713 3.60697 14.9999 3.84369 15 4.09766V12.957C15 13.9923 14.2143 14.8548 13.1846 14.9522C12.8678 14.9822 12.5283 15 12.167 15C11.8528 15 11.4972 14.9857 11.1094 14.9482C10.7141 14.9092 10.3616 14.7538 10.0771 14.5225C9.78195 14.758 9.41908 14.9142 9.01758 14.9522C8.70085 14.9822 8.36127 15 8 15C7.68581 15 7.3302 14.9857 6.94238 14.9482C6.54759 14.9093 6.19543 14.7543 5.91113 14.5234C5.61602 14.7587 5.25285 14.9142 4.85156 14.9522C4.53484 14.9822 4.19526 15 3.83398 15C3.51979 15 3.16419 14.9857 2.77637 14.9482C1.74219 14.8461 1.00098 13.9547 1.00098 12.96V4.09961C1.00111 3.84537 1.1303 3.60885 1.34375 3.47071L3.42969 2.12012L3.52539 2.06738C3.75611 1.96201 4.0281 1.98045 4.24512 2.1211L5.91895 3.20508L7.5957 2.12012L7.69141 2.06738C7.92213 1.96201 8.19411 1.98045 8.41113 2.1211L10.085 3.20508L11.7627 2.12012L11.8584 2.06738ZM2.50098 4.50684V12.96C2.50098 13.2281 2.69921 13.4318 2.91992 13.4551C3.2561 13.4876 3.56417 13.5 3.83398 13.5C4.14457 13.5 4.43679 13.4839 4.70996 13.458C4.97023 13.4334 5.16698 13.2177 5.16699 12.957V4.50586L3.83594 3.64258L2.50098 4.50684ZM6.66699 4.50684V12.96C6.66699 13.2281 6.86522 13.4318 7.08594 13.4551C7.42212 13.4876 7.73019 13.5 8 13.5C8.31059 13.5 8.60281 13.4839 8.87598 13.458C9.13625 13.4334 9.33299 13.2177 9.33301 12.957V4.50586L8.00195 3.64258L6.66699 4.50684ZM10.834 4.50684V12.96C10.834 13.2281 11.0322 13.4318 11.2529 13.4551C11.5891 13.4876 11.8972 13.5 12.167 13.5C12.4776 13.5 12.7698 13.4839 13.043 13.458C13.3032 13.4334 13.5 13.2177 13.5 12.957V4.50586L12.1689 3.64258L10.834 4.50684Z" fill="black"/>
</svg>

<!-- This Source Code Form is subject to the terms of the Mozilla Public
   - License, v. 2.0. If a copy of the MPL was not distributed with this
   - file, You can obtain one at http://mozilla.org/MPL/2.0/. -->
<svg xmlns="http://www.w3.org/2000/svg" width="16" height="16" fill="context-fill" fill-opacity="context-fill-opacity" viewBox="0 0 16 16">
    <path fill-rule="evenodd" d="M11.858 2.067a.75.75 0 0 1 .72.054l2.08 1.348a.75.75 0 0 1 .342.629v8.859a2.003 2.003 0 0 1-1.815 1.995 11 11 0 0 1-2.076-.004 1.93 1.93 0 0 1-1.032-.425 2 2 0 0 1-1.06.43 11 11 0 0 1-2.075-.005 1.93 1.93 0 0 1-1.03-.425c-.296.236-.66.391-1.06.43a11 11 0 0 1-2.076-.005c-1.034-.102-1.775-.993-1.775-1.988V4.1c0-.255.13-.491.343-.63L3.43 2.12l.095-.053a.75.75 0 0 1 .72.054L5.92 3.205 7.596 2.12l.095-.053a.75.75 0 0 1 .72.054l1.674 1.084 1.678-1.085zm-9.357 2.44v8.453a.49.49 0 0 0 .419.495 9.3 9.3 0 0 0 1.79.003.5.5 0 0 0 .457-.501V4.506l-1.331-.863zm4.166 0v8.453a.49.49 0 0 0 .419.495 9.3 9.3 0 0 0 1.79.003.5.5 0 0 0 .457-.501V4.506l-1.331-.863zm4.167 0v8.453a.49.49 0 0 0 .419.495 9.3 9.3 0 0 0 1.79.003.5.5 0 0 0 .457-.501V4.506l-1.331-.863z" clip-rule="evenodd" />
</svg>
